!!!SOCIAL_FUNCTION:	summer dances
!!!PDT:	1956
!!!OTL: No_196_Drunken_Dance_Song_(d).krn
!!!LANG: Non-Tone
!!!LING_GROUP: Muskogean
!!!REG: Florida
**kern
*staff1
=1-
=
*clefF4
*k[b-]
*M5/8
16F\LL
16F\
16F\
16F\J
8G\
8.D\
16F\Jk
=2
8.F\L
16D\Jk
4C/
8r
=3
16F\LL
16F\
16F\
16F\J
8G\
8.D\
16F\Jk
=4
8.F\L
16D\Jk
4C/
8r
=5
16F\LL
16F\
16F\
16F\J
8G\
8.F\
16G\Jk
=6
16G\LL
16F\J
8G\J
4F\
8r
=7
8.B-\L
16G\K
8A\
8.D\
16G\Jk
=8
8.F\L
16D\Jk
4C/
8r
==:|!
*-
